X: 3191
Q: "Strathspey."
M: C
L: 1/8
K: Gm
|:\
g2d>c (B<G) G>B | A>fc>f (A<F) F>A |\
|:\
g>ab>g a>bg>d | f>ga>f g>af>d |\
g>ab>g a>bg>d |[1 c<A d>^F G3 d :|[2 c<A d>^F G2-Gz |]


